static/logos/feedly-wordmark-color.svg

<svg width="100" height="30" viewBox="0 0 100 30" fill="none" xmlns="http://www.w3.org/2000/svg">
<g clip-path="url(#clip0_1_2786)">
<path fill-rule="evenodd" clip-rule="evenodd" d="M12.8267 0.992554C14.1247 -0.330851 16.2475 -0.330851 17.5448 0.992554L29.4056 13.0844C30.7021 14.4063 30.7021 16.5722 29.4056 17.8956L21.11 26.3523C20.5033 26.9709 19.6647 27.3531 18.7394 27.3531H11.6335C10.7906 27.3531 10.0213 27.0364 9.43119 26.5135L0.972393 17.889C-0.324131 16.5663 -0.324131 14.4019 0.972393 13.0785L12.8267 0.992554ZM17.2147 23.0669L16.0315 24.2733C15.9449 24.3616 15.825 24.4161 15.6928 24.4161H14.6794C14.5588 24.4161 14.4497 24.3712 14.3645 24.2961L13.1582 23.0655C12.9741 22.8777 12.9741 22.5691 13.1582 22.3799L14.8492 20.6558C15.0348 20.4666 15.3381 20.4666 15.5224 20.6558L17.2147 22.3806C17.4003 22.5691 17.4003 22.8777 17.2147 23.0669ZM17.2147 15.8328L12.4836 20.6566C12.3962 20.7449 12.2771 20.7994 12.1456 20.7994H11.1315C11.0116 20.7994 10.9011 20.7545 10.8173 20.6794L9.61035 19.4495C9.42544 19.2602 9.42544 18.9509 9.61035 18.7631L14.8492 13.4216C15.0348 13.2331 15.3381 13.2331 15.5231 13.4216L17.2147 15.1464C17.4003 15.3349 17.4003 15.6443 17.2147 15.8328ZM17.2147 8.59863L8.93642 17.0391C8.84832 17.1275 8.72912 17.182 8.59768 17.182H7.58428C7.46439 17.182 7.35389 17.1371 7.2701 17.0619L6.06242 15.8313C5.87751 15.6435 5.87751 15.3342 6.06242 15.1449L14.8492 6.18674C15.0348 5.99747 15.3367 5.99747 15.5224 6.18674L17.2147 7.91224C17.4003 8.10077 17.4003 8.4101 17.2147 8.59863Z" fill="#26A943"/>
<path d="M86.7773 11.1107V6.03357H83.1875V24.4331H86.7773V11.649L91.1784 23.6082C91.2801 23.8653 91.3292 24.1488 91.3292 24.4331C91.3292 25.2579 90.8749 26.0039 89.9398 26.107C89.2324 26.1335 88.5254 26.0555 87.8429 25.9782V28.9947C88.5752 29.072 89.3075 29.1228 90.0415 29.1228C92.4914 29.1228 93.7556 28.2464 94.5398 26.107L99.9991 11.1107H96.2836L93.4275 20.2331H93.3777L90.4194 11.1107H86.7773Z" fill="#2E2E2E"/>
<path d="M44.713 6.13666C44.1071 6.1109 43.4499 6.03357 42.8183 6.03357C39.886 6.03357 38.4456 7.70897 38.4456 10.0789V11.1107H36.2969V13.5579H38.4456V24.4331H42.0341V13.5579H44.5116V11.1107H42.0341V10.3109C42.0341 9.20325 42.4134 8.7901 43.3983 8.7901C43.8288 8.7901 44.2832 8.81736 44.713 8.8689V6.13666Z" fill="#2E2E2E"/>
<path fill-rule="evenodd" clip-rule="evenodd" d="M82.4017 6.03357V24.4331H78.9887V22.7311H78.9389C78.1045 24.1753 76.6638 24.7932 74.9704 24.7932C71.3873 24.7932 69.4739 21.9623 69.1554 18.6608H59.7554C59.8571 21.0056 60.9427 22.0359 62.9659 22.0359C64.4048 22.0359 65.569 21.133 65.7961 20.3104H68.9561C67.9434 23.4801 65.7961 24.7932 62.8389 24.7932C59.0185 24.7932 56.5462 22.3114 56.2076 18.6608H46.9655C47.0669 21.0056 48.1532 22.0359 50.175 22.0359C51.615 22.0359 52.7782 21.133 53.0048 20.3104H56.1641C55.1543 23.4801 53.0048 24.7932 50.049 24.7932C45.9276 24.7932 43.375 21.907 43.375 17.7836C43.375 13.7899 46.0796 10.7498 50.049 10.7498C53.649 10.7498 55.7589 13.2478 56.2848 16.3726C56.8438 13.0954 59.3547 10.7498 62.8389 10.7498C66.6171 10.7498 68.7539 13.5004 69.141 16.8395C69.4161 13.5844 71.3476 10.7498 74.8954 10.7498C76.4361 10.7498 77.9529 11.4192 78.7613 12.7331H78.8132V6.03357H82.4017ZM49.948 13.5063C47.6217 13.5063 47.0417 15.3107 46.9655 16.3417H52.8034C52.4746 14.4851 51.6918 13.5063 49.948 13.5063ZM59.7554 16.3417C59.8318 15.3107 60.4125 13.5063 62.7378 13.5063C64.4813 13.5063 65.2659 14.4851 65.5936 16.3417H59.7554ZM78.9389 17.7328C78.9389 15.5684 78.1806 13.5063 75.8546 13.5063C73.5059 13.5063 72.6961 15.5942 72.6961 17.7586C72.6961 19.8464 73.6308 22.0359 75.8546 22.0359C78.2066 22.0359 78.9389 19.923 78.9389 17.7328Z" fill="#2E2E2E"/>
</g>
<defs>
<clipPath id="clip0_1_2786">
<rect width="100" height="29.1228" fill="white"/>
</clipPath>
</defs>
</svg>

<svg xmlns="http://www.w3.org/2000/svg" width="213.333" height="64" fill="none" viewBox="0 0 100 30"><g clip-path="url(#a)"><path fill="#26A943" fill-rule="evenodd" d="M12.827.993a3.3 3.3 0 0 1 4.718 0l11.86 12.091c1.297 1.322 1.297 3.488 0 4.812l-8.295 8.456a3.31 3.31 0 0 1-2.37 1.001h-7.106a3.308 3.308 0 0 1-2.203-.84L.972 17.89c-1.296-1.323-1.296-3.487 0-4.81L12.827.992Zm4.388 22.074-1.183 1.206a.473.473 0 0 1-.34.143H14.68a.473.473 0 0 1-.315-.12l-1.206-1.23a.495.495 0 0 1 0-.686l1.691-1.724a.47.47 0 0 1 .673 0l1.693 1.725a.493.493 0 0 1 0 .686Zm0-7.234-4.731 4.824a.474.474 0 0 1-.338.142h-1.014a.47.47 0 0 1-.315-.12L9.61 19.45a.494.494 0 0 1 0-.686l5.24-5.341a.472.472 0 0 1 .673 0l1.692 1.724a.493.493 0 0 1 0 .687Zm0-7.234-8.279 8.44a.477.477 0 0 1-.338.143H7.584a.47.47 0 0 1-.314-.12l-1.208-1.23a.494.494 0 0 1 0-.687l8.787-8.958a.47.47 0 0 1 .673 0l1.693 1.725a.493.493 0 0 1 0 .687Z" clip-rule="evenodd"/><path fill="#2E2E2E" d="M86.777 11.11V6.035h-3.59v18.4h3.59V11.648l4.401 11.96c.102.256.151.54.151.824 0 .825-.454 1.57-1.39 1.674-.707.027-1.414-.052-2.096-.129v3.017c.732.077 1.465.128 2.198.128 2.45 0 3.715-.877 4.499-3.016L100 11.111h-3.716l-2.857 9.122h-.05l-2.958-9.122h-3.642ZM44.713 6.137c-.606-.026-1.263-.103-1.895-.103-2.932 0-4.372 1.675-4.372 4.045v1.032h-2.15v2.447h2.15v10.875h3.588V13.558h2.478V11.11h-2.478v-.8c0-1.108.38-1.52 1.364-1.52.43 0 .885.026 1.315.078V6.137Z"/><path fill="#2E2E2E" fill-rule="evenodd" d="M82.402 6.034v18.4h-3.413V22.73h-.05c-.834 1.444-2.275 2.062-3.969 2.062-3.583 0-5.496-2.83-5.815-6.132h-9.4c.102 2.345 1.188 3.375 3.21 3.375 1.44 0 2.604-.903 2.831-1.726h3.16c-1.013 3.17-3.16 4.483-6.117 4.483-3.82 0-6.293-2.482-6.631-6.132h-9.242c.1 2.345 1.187 3.375 3.209 3.375 1.44 0 2.603-.903 2.83-1.726h3.16c-1.01 3.17-3.16 4.483-6.116 4.483-4.121 0-6.674-2.886-6.674-7.01 0-3.993 2.705-7.033 6.674-7.033 3.6 0 5.71 2.498 6.236 5.623.559-3.278 3.07-5.623 6.554-5.623 3.778 0 5.915 2.75 6.302 6.09.275-3.256 2.207-6.09 5.754-6.09 1.541 0 3.058.67 3.866 1.983h.052v-6.7h3.589Zm-32.454 7.472c-2.326 0-2.906 1.805-2.983 2.836h5.838c-.328-1.857-1.111-2.836-2.855-2.836Zm9.807 2.836c.077-1.031.657-2.836 2.983-2.836 1.743 0 2.528.98 2.856 2.836h-5.839Zm19.184 1.39c0-2.164-.758-4.226-3.084-4.226-2.35 0-3.159 2.088-3.159 4.253 0 2.087.935 4.277 3.159 4.277 2.352 0 3.084-2.113 3.084-4.303Z" clip-rule="evenodd"/></g><defs><clipPath id="a"><path fill="#fff" d="M0 0h100v29.123H0z"/></clipPath></defs></svg>
